headphones-settings.svg

<svg fill="currentColor" viewBox="0 0 24 24"><path d="M12 1a9 9 0 0 1 9 9v7a3 3 0 0 1-3 3h-3v-8h4v-2a7 7 0 0 0-7-7 7 7 0 0 0-7 7v2h4v8H6a3 3 0 0 1-3-3v-7a9 9 0 0 1 9-9m3 23v-2h2v2zm-4 0v-2h2v2zm-4 0v-2h2v2z"/></svg>

<svg  viewBox="0 0 24 24" fill="currentColor"><path  d="M12,1A9,9 0 0,1 21,10V17A3,3 0 0,1 18,20H15V12H19V10A7,7 0 0,0 12,3A7,7 0 0,0 5,10V12H9V20H6A3,3 0 0,1 3,17V10A9,9 0 0,1 12,1M15,24V22H17V24H15M11,24V22H13V24H11M7,24V22H9V24H7Z"/></svg>
